X: 78
T:Croppies Lie Down. WI.078
M:6/8
Q:120
C:"Irish"
S:Wm Irwin, Folio MS, c1850. AGG's Transcription
R:Jig
O:England
A:Lake District
Z:vmp.Chris Partington.2005
K:G
"With Spirit"g|dBG GFG|ABA ABd|(e/f/g)e dBd|gGG Gge|!
dBG GFG|ABA ABd|(e/f/g)e dBd|gGG G2:|!
|:e|def gfg|efg a2f|gab efg|!
dBG AGF|G3 efg|dBd G2:|]
